packages/symbols/svgs/solid/grid-solid.svg

<svg width="16" height="16" viewBox="0 0 16 16" xmlns="http://www.w3.org/2000/svg"><path fill-rule="evenodd" clip-rule="evenodd" d="M1 0h5c.6 0 1 .4 1 1v5c0 .6-.4 1-1 1H1c-.6 0-1-.4-1-1V1c0-.6.4-1 1-1Zm9 0h5c.6 0 1 .4 1 1v5c0 .6-.4 1-1 1h-5c-.6 0-1-.4-1-1V1c0-.6.4-1 1-1ZM6 9H1c-.6 0-1 .4-1 1v5c0 .6.4 1 1 1h5c.6 0 1-.4 1-1v-5c0-.6-.4-1-1-1Zm4 0h5c.6 0 1 .4 1 1v5c0 .6-.4 1-1 1h-5c-.6 0-1-.4-1-1v-5c0-.6.4-1 1-1Z"/></svg>

<svg width="16" height="16" viewBox="0 0 16 16" fill="none" xmlns="http://www.w3.org/2000/svg">
<path fill-rule="evenodd" clip-rule="evenodd" d="M1 0H6C6.6 0 7 0.4 7 1V6C7 6.6 6.6 7 6 7H1C0.4 7 0 6.6 0 6V1C0 0.4 0.4 0 1 0ZM10 0H15C15.6 0 16 0.4 16 1V6C16 6.6 15.6 7 15 7H10C9.4 7 9 6.6 9 6V1C9 0.4 9.4 0 10 0ZM6 9H1C0.4 9 0 9.4 0 10V15C0 15.6 0.4 16 1 16H6C6.6 16 7 15.6 7 15V10C7 9.4 6.6 9 6 9ZM10 9H15C15.6 9 16 9.4 16 10V15C16 15.6 15.6 16 15 16H10C9.4 16 9 15.6 9 15V10C9 9.4 9.4 9 10 9Z" fill="black"/>
</svg>
